<?xml version="1.0" encoding="UTF-8"?>
<map version="1.10" tiledversion="1.12.2" orientation="orthogonal" renderorder="right-down" width="44" height="35" tilewidth="32" tileheight="32" infinite="0" nextlayerid="10" nextobjectid="34">
 <imagelayer id="2" name="Background" locked="1">
  <image source="ikena_bg.png" width="1408" height="1120"/>
 </imagelayer>
 <objectgroup id="3" name="Spawn">
  <object id="1" name="player_spawn" x="760.666" y="1046.66">
   <point/>
  </object>
 </objectgroup>
 <objectgroup id="7" name="WalkPaths">
  <object id="31" x="1043" y="226">
   <polyline points="0,0 -26,9 -39,16 -50,37 -38,59 -7,75 18,88 51,108 64,125 72,151 65,190 43,223 28,233 -2,254 -34,278 -71,306 -109,330 -128,346 -156,362 -194,373 -214,378 -235,380 -256,383 -284,392 -317,392 -342,392 -374,387 -419,371 -448,352 -478,329 -508,309 -534,278 -565,253 -580,238 -597,218 -607,202 -623,192 -685,220 -715,233 -780,264 -791,275 -800,286 -809,295 -815,303 -820,318 -823,326 -825,338 -825,348 -821,363 -821,375 -795,391 -697,443 -627,479 -593,493 -579,503 -565,509 -552,520 -545,533 -542,539 -543,557 -551,576 -568,607 -578,629 -581,654 -567,685 -536,708 -505,723 -482,738 -425,776 -382,789 -340,806 -282,809 -280,880 -281,720 -280,680 -280,643 -280,609 -281,560 -283,444 -287,423 -290,401 -294,367 -300,322 -304,280 -309,247 -309,214 -311,183 -314,153 -309,107 -302,26 -300,-65"/>
  </object>
 </objectgroup>
 <objectgroup id="5" name="Collisions"/>
</map>
